X:1
T: The Barns of Clyde
C:Joshua Campbell 1788
R:Reel
Q:232
K:Dm
M:4/4
L:1/16
|:^c2|d4 D2E2 F2G2 A2=B2|c3d c2G2 E2C2 G2E2|F3E D2E2 F2G2 A2e2|f2d2 e2^c2 d2D2 D2^c2|
d4 D2E2 F2G2 A2=B2|c3d c2G2 E2C2 G2E2|F3E D2E2 F2G2 A2e2|f2d2 e2^c2 d2D2 D2e2|
f3g a2g2 f3e d2e2|ccc2 e2c2 G2c2 e2g2|f3g a2g2 f3e f2d2|g2e2 c2e2 d2D2 D2e2|
f3g a2g2 f2g2 a2b2|a2g2 f2e2 g2e2 d2c2|d2^c2 d2A2 =c2G2 A2E2|C2E2 c2E2 DDD2 D2:|
